X:255
T: Cliff Hornpipe
C: Noel Strange
Z: B.Black
S: Treoir 32/4
M: 4/4
L: 1/8
R: hornpipe
K: D
(3GFE|DFAF DGBG|FAde fdAF|GBed cegf|\
(3efe (3dcB (3ABA (3GFE|
DFAF DGBG|FAde fdAF|GBdg fdec|d2 dc d2 :|
cd|eA (3AAA fA (3AAA|gfed eA (3AAA|gefd edcd|\
(3efe (3dcB (3ABA (3GFE|
DFAF DGBG|FAde fdAF|GBdg fdec|d2 dc d2 :|
